common/svg/lifebuoy-icon.svg

<svg fill="none" height="20" viewBox="0 0 20 20" width="20" xmlns="http://www.w3.org/2000/svg"><path clip-rule="evenodd" d="m.88147 10c0-5.03601 4.08252-9.11853 9.11853-9.11853 5.0361 0 9.1186 4.08252 9.1186 9.11853 0 5.0361-4.0825 9.1186-9.1186 9.1186-5.03601 0-9.11853-4.0825-9.11853-9.1186zm3.70714-4.2514c-.92076 1.17036-1.47001 2.64676-1.47001 4.2514 0 1.6047.54924 3.0811 1.46998 4.2514l1.96565-1.9656c-.43519-.6548-.68875-1.4407-.68875-2.2858 0-.84511.25357-1.63101.68877-2.28576zm3.12567 7.6972-1.96565 1.9657c1.17036.9207 2.64674 1.47 4.25137 1.47 1.6047 0 3.081-.5493 4.2514-1.47l-1.9657-1.9657c-.6547.4352-1.4406.6888-2.2857.6888-.84509 0-1.63097-.2536-2.28572-.6888zm9.16722-3.4458c0 1.6047-.5493 3.0811-1.47 4.2515l-1.9657-1.9657c.4352-.6547.6888-1.4407.6888-2.2858 0-.84208-.2518-1.62538-.6841-2.27873l1.9661-1.96613c.9177 1.16932 1.4649 2.6432 1.4649 4.24486zm-2.6367-5.41662c-1.1693-.91761-2.6431-1.46478-4.2448-1.46478-1.60461 0-3.08098.54923-4.25133 1.46996l1.96564 1.96564c.65474-.43517 1.44062-.68872 2.28569-.68872.8421 0 1.6253.25173 2.2787.68404zm-2.5462 3.59048c-.4453-.41436-1.0423-.66782-1.6986-.66782-1.37737 0-2.49396 1.11659-2.49396 2.49396 0 1.3774 1.11659 2.494 2.49396 2.494 1.3774 0 2.494-1.1166 2.494-2.494 0-.65625-.2535-1.25331-.6679-1.69861-.0232-.01868-.0456-.03879-.0672-.06034-.0215-.02155-.0416-.04398-.0603-.06719z" fill="#000" fill-rule="evenodd"/></svg>

<svg width="20" height="20" viewBox="0 0 20 20" fill="none" xmlns="http://www.w3.org/2000/svg">
<path fill-rule="evenodd" clip-rule="evenodd" d="M0.88147 10C0.88147 4.96399 4.96399 0.88147 10 0.88147C15.0361 0.88147 19.1186 4.96399 19.1186 10C19.1186 15.0361 15.0361 19.1186 10 19.1186C4.96399 19.1186 0.88147 15.0361 0.88147 10ZM4.58861 5.7486C3.66785 6.91896 3.1186 8.39536 3.1186 10C3.1186 11.6047 3.66784 13.0811 4.58858 14.2514L6.55423 12.2858C6.11904 11.631 5.86548 10.8451 5.86548 10C5.86548 9.15489 6.11905 8.36899 6.55425 7.71424L4.58861 5.7486ZM7.71428 13.4458L5.74863 15.4115C6.91899 16.3322 8.39537 16.8815 10 16.8815C11.6047 16.8815 13.081 16.3322 14.2514 15.4115L12.2857 13.4458C11.631 13.881 10.8451 14.1346 10 14.1346C9.15491 14.1346 8.36903 13.881 7.71428 13.4458ZM16.8815 10C16.8815 11.6047 16.3322 13.0811 15.4115 14.2515L13.4458 12.2858C13.881 11.6311 14.1346 10.8451 14.1346 10C14.1346 9.15792 13.8828 8.37462 13.4505 7.72127L15.4166 5.75514C16.3343 6.92446 16.8815 8.39834 16.8815 10ZM14.2448 4.58338C13.0755 3.66577 11.6017 3.1186 10 3.1186C8.39539 3.1186 6.91902 3.66783 5.74867 4.58856L7.71431 6.5542C8.36905 6.11903 9.15493 5.86548 10 5.86548C10.8421 5.86548 11.6253 6.11721 12.2787 6.54952L14.2448 4.58338ZM11.6986 8.17386C11.2533 7.7595 10.6563 7.50604 10 7.50604C8.62263 7.50604 7.50604 8.62263 7.50604 10C7.50604 11.3774 8.62263 12.494 10 12.494C11.3774 12.494 12.494 11.3774 12.494 10C12.494 9.34375 12.2405 8.74669 11.8261 8.30139C11.8029 8.28271 11.7805 8.2626 11.7589 8.24105C11.7374 8.2195 11.7173 8.19707 11.6986 8.17386Z" fill="black"/>
</svg>
